X: 3089
T: Bear Dance, The
R: polka
M: 2/4
K: Bminor
f/e/|:fB Bf/e/|fB Bd/e/|ff ed|e2 ed/e/|
f2 e/d/c|d2 c/B/A|B/c/d cA|1 B2 Bf/e/:|2 B2 B2||
|:B/c/d B/c/d|cA A2|B/c/d B/c/d|e2 ed/e/|
f2 e/d/c|d2 c/B/A|B/c/d cA|1 B2 B2:|2 B2 Bf/e/||

